X:1
T:The Fancy Fair
L:1/8
M:4/4
I:linebreak $
K:G
V:1 treble 
V:1
|: (3d^c=c | B2 c>A B>GA>F | G2 (3AGF G2 (3def | g>ba>f g>dB>d | (3cBA B>G A2 d>c |$ %5
 B>d (3cBA B2 (3AGF | G2 a>b g2 a>g | (3f/g/ag (3fed (3e/f/gf (3edc x/12 | (3dAf (3dAF D2 :: %9
 (3edc |$ B>dg>a b>gd>B | A>df>a c'2 (3edc | B2 (3fga b>gd>B | G2 (3fga g2 (3def |$ %14
 (3gag (3fed (3gag (3fed | (3gag (3fed d>cB<A | (3Bcd g>e d>c (3cBA | (3GAG F>A G2 :| %18
